packages/assets/static/images/icons/bold/tree--bold.svg

<svg width="24" height="24" viewBox="0 0 24 24" xmlns="http://www.w3.org/2000/svg">
<path d="M18.3597 5.58931C17.7721 4.26006 16.811 3.13016 15.5932 2.337C14.3753 1.54383 12.9533 1.12158 11.5 1.12158C10.0467 1.12158 8.62464 1.54383 7.40683 2.337C6.18902 3.13016 5.22789 4.26006 4.64031 5.58931C2.99118 6.39985 1.71897 7.8162 1.08939 9.54254C0.459806 11.2689 0.52154 13.1717 1.2617 14.8536C2.00185 16.5355 3.36319 17.8664 5.06139 18.5683C6.75959 19.2703 8.66333 19.289 10.375 18.6206V21.7499C10.375 22.0483 10.4935 22.3344 10.7045 22.5454C10.9155 22.7564 11.2016 22.8749 11.5 22.8749C11.7984 22.8749 12.0845 22.7564 12.2955 22.5454C12.5065 22.3344 12.625 22.0483 12.625 21.7499V18.6224C13.4606 18.9534 14.3512 19.1239 15.25 19.1249H15.43C17.0273 19.0856 18.565 18.5105 19.7961 17.4921C21.0272 16.4736 21.8803 15.071 22.2183 13.5093C22.5563 11.9477 22.3596 10.3178 21.6598 8.88147C20.96 7.4451 19.7977 6.28563 18.3597 5.58931ZM15.3766 16.8749C14.4031 16.8989 13.4447 16.6309 12.625 16.1052V12.6956L16.5034 10.7559C16.6377 10.6911 16.7578 10.6002 16.8567 10.4886C16.9555 10.377 17.0312 10.2468 17.0794 10.1057C17.1275 9.96459 17.1471 9.8153 17.137 9.66654C17.1269 9.51777 17.0873 9.37249 17.0206 9.23915C16.9539 9.10581 16.8613 8.98706 16.7483 8.88982C16.6352 8.79257 16.504 8.71877 16.3622 8.67269C16.2204 8.62662 16.0708 8.6092 15.9222 8.62144C15.7736 8.63368 15.6289 8.67534 15.4966 8.74399L12.625 10.1793V8.24993C12.625 7.95156 12.5065 7.66542 12.2955 7.45444C12.0845 7.24346 11.7984 7.12493 11.5 7.12493C11.2016 7.12493 10.9155 7.24346 10.7045 7.45444C10.4935 7.66542 10.375 7.95156 10.375 8.24993V12.4293L7.50343 10.994C7.23725 10.8656 6.93122 10.847 6.65148 10.9424C6.37175 11.0378 6.14079 11.2394 6.00852 11.5037C5.87625 11.768 5.85329 12.0738 5.94462 12.3548C6.03594 12.6359 6.2342 12.8698 6.49655 13.0059L10.375 14.9456V16.1052C9.5547 16.6296 8.59673 16.8976 7.62343 16.8749C5.04249 16.8102 2.86843 14.5724 2.87499 11.9877C2.87539 11.0166 3.16688 10.0679 3.71184 9.26408C4.25679 8.46026 5.03019 7.83826 5.93218 7.47837C6.07814 7.41953 6.21012 7.33071 6.31961 7.21767C6.4291 7.10463 6.51365 6.96988 6.5678 6.82212C6.93677 5.8105 7.60788 4.9368 8.49015 4.31946C9.37242 3.70213 10.4232 3.37102 11.5 3.37102C12.5768 3.37102 13.6276 3.70213 14.5098 4.31946C15.3921 4.9368 16.0632 5.8105 16.4322 6.82212C16.4863 6.96988 16.5709 7.10463 16.6804 7.21767C16.7899 7.33071 16.9219 7.41953 17.0678 7.47837C17.9695 7.83814 18.7427 8.45986 19.2876 9.2633C19.8326 10.0667 20.1242 11.0151 20.125 11.9859C20.1325 14.5696 17.9575 16.8084 15.3766 16.8749Z"/>
</svg>

<svg viewBox="0 0 24 24" xmlns="http://www.w3.org/2000/svg" aria-hidden="true" fill="currentColor"><path d="M18.36 5.59a7.5 7.5 0 0 0-13.72 0 7.125 7.125 0 0 0 5.735 13.03v3.13a1.125 1.125 0 1 0 2.25 0v-3.128a7.2 7.2 0 0 0 2.625.503h.18a7.125 7.125 0 0 0 2.93-13.536m-2.983 11.285a4.87 4.87 0 0 1-2.752-.77v-3.41l3.878-1.94a1.126 1.126 0 1 0-1.006-2.011l-2.872 1.435V8.25a1.125 1.125 0 1 0-2.25 0v4.18l-2.872-1.435a1.125 1.125 0 0 0-1.006 2.012l3.878 1.94v1.16a4.9 4.9 0 0 1-2.752.769c-2.58-.065-4.755-2.303-4.748-4.887a4.86 4.86 0 0 1 3.057-4.51 1.13 1.13 0 0 0 .636-.656 5.25 5.25 0 0 1 9.864 0 1.12 1.12 0 0 0 .636.656 4.86 4.86 0 0 1 3.057 4.508c.008 2.584-2.168 4.822-4.748 4.889"/></svg>
